X: 4427
T: "OPHELIA" VALSE
C: Jules Renardi
R: Waltz
%R: waltz
B: James Kerr "Merry Melodies" v.4 p.48 #427
Z: 2016 John Chambers <jc:trillian.mit.edu>
M: 3/4
L: 1/8
K: G
[|!p!\
B6- | B2(A3B) | A6 | G6 |\
c6- | c2(B3c) | B6 | A6 |\
d4d2 | (g4e2) | d6 | (B4A2) |\
G4G2 | (F4G2) | A6- | A(DEFGA) |\
B6- | B2(A3B) | A6 | G6 |
c6- | c2(B3c) | B6 | A6 |\
d4d2 | (g4e2) | (d4B2) | (G4A2) |\
(B4c2) | (B4A2) |[1 G6- |G!ff!bb2b2 |\
|["Last."G6- | G2"_Fine."z2z2 H |: !ff!\
(b3a)a2 | zc'f2e2 | (e3d)d2- | d3gag |
(g3f)f2- | f3aba | (a3g)g2- | gbb2b2 |\
(b3a)a2 | zc'f2f2 | (a3g)g2 | zfagfe |\
dbagfe | dedcBA | GFGBdg |[1 zbb2b2 :|[2 "_D.C."z6 |]

%%sep 1 1 500
%%sep 1 1 500

